images/segwit_version1_0.svg

<?xml version="1.0" encoding="utf-8"?>
<!-- Generator: Adobe Illustrator 16.0.4, SVG Export Plug-In . SVG Version: 6.00 Build 0)  -->
<!DOCTYPE svg PUBLIC "-//W3C//DTD SVG 1.1//EN" "http://www.w3.org/Graphics/SVG/1.1/DTD/svg11.dtd">
<svg version="1.1" id="TapTree-2.1" xmlns="http://www.w3.org/2000/svg" xmlns:xlink="http://www.w3.org/1999/xlink" x="0px"
	 y="0px" width="595.279px" height="330.643px" viewBox="0 0 595.279 330.643" enable-background="new 0 0 595.279 330.643"
	 xml:space="preserve">
<g>
	<path fill="#454545" d="M590.28,2c1.654,0,3,1.346,3,3v320.643c0,1.654-1.346,3-3,3H5c-1.654,0-3-1.346-3-3V5c0-1.654,1.346-3,3-3
		H590.28 M590.28,0H5C2.25,0,0,2.25,0,5v320.643c0,2.75,2.25,5,5,5H590.28c2.75,0,5-2.25,5-5V5C595.28,2.25,593.03,0,590.28,0
		L590.28,0z"/>
</g>
<g opacity="0.65">
	<path fill="#A1DADE" d="M195.667,132.598c0,1.321-1.081,2.402-2.402,2.402H70.671c-1.321,0-2.402-1.081-2.402-2.402v-17.299
		c0-1.321,1.081-2.402,2.402-2.402h122.593c1.321,0,2.402,1.081,2.402,2.402L195.667,132.598L195.667,132.598z"/>
</g>
<g opacity="0.65">
	<path fill="#A1DADE" d="M385.667,132.598c0,1.321-1.081,2.402-2.402,2.402H247.113c-1.32,0-2.401-1.081-2.401-2.402v-17.299
		c0-1.321,1.081-2.402,2.401-2.402h136.151c1.321,0,2.402,1.081,2.402,2.402L385.667,132.598L385.667,132.598z"/>
</g>
<g>
	<rect x="32.422" y="25.333" fill="none" width="416.578" height="35.333"/>
	<text transform="matrix(0.9799 0 0 1 32.4216 35.0833)" font-family="'RobotoMono-Bold'" font-size="13">Segwit V1 Output Spending Paths</text>
</g>
<g>
	<rect x="32.422" y="118.896" fill="none" width="181.244" height="24.667"/>
	<text transform="matrix(0.9799 0 0 1 32.4216 128.6458)" font-family="'RobotoMono-Bold'" font-size="13">[01] [33B public key]</text>
</g>
<g>
	<rect x="245.756" y="118.896" fill="none" width="181.244" height="24.667"/>
	<text transform="matrix(0.9799 0 0 1 245.7551 128.6458)" font-family="'RobotoMono-Bold'" font-size="13">[64/65B signature]</text>
</g>
<g opacity="0.44">
	<rect x="245.756" y="245.2" fill="none" width="316.19" height="27.345"/>
	<text transform="matrix(0.9799 0 0 1 245.7551 254.9504)" font-family="'RobotoMono-Bold'" font-size="13">[initial stack][tapscript][controlblock]</text>
</g>
<g>
	<rect x="32.422" y="94.218" fill="none" width="181.244" height="16.369"/>
	<text transform="matrix(0.9799 0 0 1 32.4216 103.968)" font-family="'RobotoMono-Italic'" font-size="13">Segwit v1 output:</text>
</g>
<g>
	<rect x="245.756" y="94.218" fill="none" width="181.244" height="16.369"/>
	<text transform="matrix(0.9799 0 0 1 245.7551 103.968)" font-family="'RobotoMono-Italic'" font-size="13">Key path spending:</text>
</g>
<g>
	<rect x="245.756" y="223.683" fill="none" width="181.244" height="17.238"/>
	<text transform="matrix(0.9799 0 0 1 245.7551 233.4329)" font-family="'RobotoMono-Italic'" font-size="13">Script path spending:</text>
</g>
<g opacity="0.44">
	<path fill="none" stroke="#000000" stroke-width="0.7" stroke-miterlimit="10" d="M128.667,143.563v102.988c0,2.75,2.25,5,5,5h103"
		/>
</g>
<g>
	
		<line fill="none" stroke="#000000" stroke-width="0.7" stroke-miterlimit="10" x1="199.333" y1="123.92" x2="236.667" y2="123.92"/>
</g>
</svg>

<?xml version="1.0" encoding="UTF-8" standalone="no"?>
<!DOCTYPE svg PUBLIC "-//W3C//DTD SVG 1.1//EN" "http://www.w3.org/Graphics/SVG/1.1/DTD/svg11.dtd">
<svg width="100%" height="100%" viewBox="0 0 596 331" version="1.1" xmlns="http://www.w3.org/2000/svg" xmlns:xlink="http://www.w3.org/1999/xlink" xml:space="preserve" xmlns:serif="http://www.serif.com/" style="fill-rule:evenodd;clip-rule:evenodd;stroke-miterlimit:10;">
    <path d="M590.28,2C591.934,2 593.28,3.346 593.28,5L593.28,325.643C593.28,327.297 591.934,328.643 590.28,328.643L5,328.643C3.346,328.643 2,327.297 2,325.643L2,5C2,3.346 3.346,2 5,2L590.28,2M590.28,0L5,0C2.25,0 0,2.25 0,5L0,325.643C0,328.393 2.25,330.643 5,330.643L590.28,330.643C593.03,330.643 595.28,328.393 595.28,325.643L595.28,5C595.28,2.25 593.03,0 590.28,0Z" style="fill:rgb(69,69,69);fill-rule:nonzero;"/>
    <path d="M195.667,132.598C195.667,133.919 194.586,135 193.265,135L70.671,135C69.35,135 68.269,133.919 68.269,132.598L68.269,115.299C68.269,113.978 69.35,112.897 70.671,112.897L193.264,112.897C194.585,112.897 195.666,113.978 195.666,115.299L195.667,132.598Z" style="fill:rgb(161,218,222);fill-opacity:0.65;fill-rule:nonzero;"/>
    <path d="M385.667,132.598C385.667,133.919 384.586,135 383.265,135L247.113,135C245.793,135 244.712,133.919 244.712,132.598L244.712,115.299C244.712,113.978 245.793,112.897 247.113,112.897L383.264,112.897C384.585,112.897 385.666,113.978 385.666,115.299L385.667,132.598Z" style="fill:rgb(161,218,222);fill-opacity:0.65;fill-rule:nonzero;"/>
    <g>
        <rect x="32.422" y="25.333" width="416.578" height="35.333" style="fill:none;"/>
        <g transform="matrix(0.9799,0,0,1,32.4216,35.0833)">
            <text x="0px" y="0px" style="font-family:'RobotoMono-Bold', 'Roboto Mono';font-weight:700;font-size:13px;">Segwit V1 Output Spending Paths</text>
        </g>
    </g>
    <g>
        <rect x="32.422" y="118.896" width="181.244" height="24.667" style="fill:none;"/>
        <g transform="matrix(0.9799,0,0,1,32.4216,128.646)">
            <text x="0px" y="0px" style="font-family:'RobotoMono-Bold', 'Roboto Mono';font-weight:700;font-size:13px;">[01] [32B public key]</text>
        </g>
    </g>
    <g>
        <rect x="245.756" y="118.896" width="181.244" height="24.667" style="fill:none;"/>
        <g transform="matrix(0.9799,0,0,1,245.755,128.646)">
            <text x="0px" y="0px" style="font-family:'RobotoMono-Bold', 'Roboto Mono';font-weight:700;font-size:13px;">[64/65B signature]</text>
        </g>
    </g>
    <g opacity="0.44">
        <rect x="245.756" y="245.2" width="316.19" height="27.345" style="fill:none;"/>
        <g transform="matrix(0.9799,0,0,1,245.755,254.95)">
            <text x="0px" y="0px" style="font-family:'RobotoMono-Bold', 'Roboto Mono';font-weight:700;font-size:13px;">[initial stack][tapscript][controlblock]</text>
        </g>
    </g>
    <g>
        <rect x="32.422" y="94.218" width="181.244" height="16.369" style="fill:none;"/>
        <g transform="matrix(0.9799,0,0,1,32.4216,103.968)">
            <text x="0px" y="0px" style="font-family:'RobotoMono-Italic', 'Roboto Mono';font-style:italic;font-size:13px;">Segwit v1 output:</text>
        </g>
    </g>
    <g>
        <rect x="245.756" y="94.218" width="181.244" height="16.369" style="fill:none;"/>
        <g transform="matrix(0.9799,0,0,1,245.755,103.968)">
            <text x="0px" y="0px" style="font-family:'RobotoMono-Italic', 'Roboto Mono';font-style:italic;font-size:13px;">Key path spending:</text>
        </g>
    </g>
    <g>
        <rect x="245.756" y="223.683" width="181.244" height="17.238" style="fill:none;"/>
        <g transform="matrix(0.9799,0,0,1,245.755,233.433)">
            <text x="0px" y="0px" style="font-family:'RobotoMono-Italic', 'Roboto Mono';font-style:italic;font-size:13px;">Script path spending:</text>
        </g>
    </g>
    <path d="M128.667,143.563L128.667,246.551C128.667,249.301 130.917,251.551 133.667,251.551L236.667,251.551" style="fill:none;fill-rule:nonzero;stroke:black;stroke-opacity:0.44;stroke-width:0.7px;"/>
    <path d="M199.333,123.92L236.667,123.92" style="fill:none;fill-rule:nonzero;stroke:black;stroke-width:0.7px;"/>
</svg>
